!!!!SEGMENT: pl-cz--iii-574--008_rodowski-aleksander--missa-in-c-agnus-dei.krn
!!!cenid: 18xx:1026
!!!COM: Rodowski, Aleksander
!!!COM-rismID:
!!!CDT: <1790->1810
!!!CNT: Polish
!!!OPR: Missa in C
!!!OTL: Agnus Dei
!!!OMV: 008
!!!PDT: 1801
!!!AGN: Sacred; Mass
!!!SMS-siglum: PL-CZ
!!!SMS-shelfmark: III-574
!!!SMS-shelfwork: 001-008 M
!!!SMS-variant:
!!!SMS-altvar:
!!!NIFC-rismSourceID: 300001098
!!!NIFC-islandoraID: pl-cz:39292
!!!URL-pdf-islandora: https://repozytorium.nifc.pl/islandora/object/pl-cz%3A39292/datastream/PDF/view
!!!URL-scan:
!!!ONB-nifc: UWAGA: części Mszy: Kyrie, Christe, Gloria, Credo, Sanctus, Pleni, Benedictus, Agnus Dei
!!!AIN: 1 alto 1 bass 2 clars 2 cor 2 oboe 1 organ 1 soprn 1 timpa 2 tromb 2 violn
!!!key: C
**kern	**fba	**dynam	**kern	**dynam	**kern	**dynam	**kern	**text	**kern	**text	**kern	**text	**kern	**kern	**kern	**kern	**kern	**kern	**kern	**kern	**kern
*	*	*	*group4	*	*group4	*	*group3	*	*group3	*	*group3	*	*	*group2	*group2	*group2	*group2	*group1	*group1	*group1	*group1
*part15	*part15	*part15	*part14	*part14	*part13	*part13	*part12	*part12	*part11	*part11	*part10	*part10	*part9	*part8	*part7	*part6	*part5	*part4	*part3	*part2	*part1
*staff15	*	*	*staff14	*	*staff13	*	*staff12	*staff12	*staff11	*staff11	*staff10	*staff10	*staff9	*staff8	*staff7	*staff6	*staff5	*staff4	*staff3	*staff2	*staff1
*I"Organo.	*	*	*I"Violino Secondo.	*	*I"Violino Primo.	*	*I"Basſo.	*	*I"Alto.	*	*I"Canto.	*	*I"Tympano in C.	*I"Clarino Secondo in C.	*I"Clarino Primo. in C:	*I"Cornu Secondo.	*I"Cornu Primo. ex. C.	*I"Clarinetto Secondo. in B.	*I"Clarinetto Primo. in B.	*I"Oboe Secondo.	*I"Oboe Primo.
*I'org	*	*	*I'vl 2	*	*I'vl 1	*	*I'B	*	*I'A	*	*I'S	*	*I'timp	*I'clno 2 in C	*I'clno 1 in C	*I'cor 2	*I'cor 1 in C	*I'cl 2 in B|b	*I'cl 1 in B|b	*I'ob 2	*I'ob 1
*Iorgan	*	*	*Ivioln	*	*Ivioln	*	*Ibass	*	*Ialto	*	*Isoprn	*	*Itimpa	*Itromb	*Itromb	*Icor	*Icor	*Iclars	*Iclars	*Ioboe	*Ioboe
*ICklav	*	*	*ICstr	*	*ICstr	*	*ICvox	*	*ICvox	*	*ICvox	*	*ICidio	*ICbras	*ICbras	*ICbras	*ICbras	*ICww	*ICww	*ICww	*ICww
*IGcont	*	*	*	*	*	*	*IGcoro	*	*IGcoro	*	*IGcoro	*	*	*	*	*	*	*	*	*	*
*clefF4	*	*	*clefG2	*	*clefG2	*	*clefF4	*	*clefC3	*	*clefC1	*	*clefF4	*clefG2	*clefG2	*clefG2	*clefG2	*clefG2	*clefG2	*clefG2	*clefG2
*	*	*	*	*	*	*	*	*	*	*	*	*	*	*	*	*	*	*ITrd1c2	*ITrd1c2	*	*
*k[]	*	*	*k[]	*	*k[]	*	*k[]	*	*k[]	*	*k[]	*	*k[]	*k[]	*k[]	*k[]	*k[]	*k[]	*k[]	*k[]	*k[]
*	*	*	*	*	*	*	*	*	*	*	*	*	*	*	*	*	*	*C:	*C:	*	*
*M2/4	*	*	*M2/4	*	*M2/4	*	*M2/4	*	*M2/4	*	*M2/4	*	*M2/4	*M2/4	*M2/4	*M2/4	*M2/4	*M2/4	*M2/4	*M2/4	*M2/4
=1	=1	=1	=1	=1	=1	=1	=1	=1	=1	=1	=1	=1	=1	=1	=1	=1	=1	=1	=1	=1	=1
*2\right	*	*	*	*	*	*	*	*	*	*	*	*	*	*	*	*	*	*	*	*	*
*tremolo	*	*	*	*	*	*	*	*	*	*	*	*	*	*	*	*	*	*	*	*	*
!	!	!	!	!	!	!	!	!	!LO:TX:b:t=6	!	!LO:TX:a:t=6	!	!LO:TX:a:t=6	!	!LO:TX:a:t=6.	!	!LO:TX:b:t=6	!	!LO:TX:a:i:t=Solo	!	!
!LO:TX:a:Bi:t=Adagio.	!	!LO:DY:t=piano	!LO:TX:a:Bi:t=Adagio.	!	!LO:TX:a:Bi:t=Adagio.	!	!LO:TX:a:t=6	!	!LO:TX:a:Bi:t=adagio.	!	!LO:TX:a:Bi:t=Adagio.	!	!LO:TX:a:Bi:t=adagio.	!LO:TX:a:t=6.	!LO:TX:a:Bi:t=Adagio.	!LO:TX:a:t=6.	!LO:TX:a:Bi:t=adagio.	!	!LO:TX:a:Bi:t=Adagio.	!LO:TX:a:Bi:t=adagio.	!LO:TX:a:Bi:t=Adagio.
8c\L	5_ 3_	p	4e 4G/	p	4cc 4e 4G/	p	0r	.	0r	.	0r	.	0r	0r	0r	0r	0r	16cc\LL	16ee\LL	16cc\LL	16ee\LL
.	.	.	.	.	.	.	.	.	.	.	.	.	.	.	.	.	.	16b\	16dd\	16b\	16dd\
8c\	.	.	.	.	.	.	.	.	.	.	.	.	.	.	.	.	.	16cc\	16ee\	16cc\	16ee\
.	.	.	.	.	.	.	.	.	.	.	.	.	.	.	.	.	.	16dd\JJ	16ff\JJ	16dd\JJ	16ff\JJ
8c\	.	.	4r	.	4r	.	.	.	.	.	.	.	.	.	.	.	.	8ee\L	8gg\L	8ee\L	8gg\L
8c\J	.	.	.	.	.	.	.	.	.	.	.	.	.	.	.	.	.	8ee\J	8gg\J	8ee\J	8gg\J
=2	=2	=2	=2	=2	=2	=2	=2	=2	=2	=2	=2	=2	=2	=2	=2	=2	=2	=2	=2	=2	=2
!	!	!	!	!	!LO:TX:t=P:problem=mixed beam	!	!	!	!	!	!	!	!	!	!	!	!	!	!	!	!
8c\L	.	.	16eLL 16G/	f	16c/LL	f	.	.	.	.	.	.	.	.	.	.	.	4ee\	4gg\	4ee\	4gg\
.	.	.	16e/	.	16cc\	.	.	.	.	.	.	.	.	.	.	.	.	.	.	.	.
8c\	.	.	16d/	.	16b\	.	.	.	.	.	.	.	.	.	.	.	.	.	.	.	.
.	.	.	16e/JJ	.	16cc\JJ	.	.	.	.	.	.	.	.	.	.	.	.	.	.	.	.
8c\	.	.	16f/LL	.	16dd\LL	.	.	.	.	.	.	.	.	.	.	.	.	4r	4r	4r	4r
.	.	.	16e/	.	16cc\	.	.	.	.	.	.	.	.	.	.	.	.	.	.	.	.
8c\J	.	.	16d/	.	16b\	.	.	.	.	.	.	.	.	.	.	.	.	.	.	.	.
.	.	.	16e/JJ	.	16cc\JJ	.	.	.	.	.	.	.	.	.	.	.	.	.	.	.	.
=3	=3	=3	=3	=3	=3	=3	=3	=3	=3	=3	=3	=3	=3	=3	=3	=3	=3	=3	=3	=3	=3
8c\L	6_ 4_	.	4f 4c/	p	4a/	p	.	.	.	.	.	.	.	.	.	.	.	16dd\LL	16ff\LL	16dd\LL	16ff\LL
.	.	.	.	.	.	.	.	.	.	.	.	.	.	.	.	.	.	16cc\	16ee\	16cc\	16ee\
8c\	.	.	.	.	.	.	.	.	.	.	.	.	.	.	.	.	.	16dd\	16ff\	16dd\	16ff\
.	.	.	.	.	.	.	.	.	.	.	.	.	.	.	.	.	.	16ee\JJ	16gg\JJ	16ee\JJ	16gg\JJ
8c\	.	.	4r	.	4r	.	.	.	.	.	.	.	.	.	.	.	.	8ff\L	8aa\L	8ff\L	8aa\L
8c\J	.	.	.	.	.	.	.	.	.	.	.	.	.	.	.	.	.	8ff\J	8aa\J	8ff\J	8aa\J
!	!	!	!	!	!	!	!	!	!	!	!	!	!	!	!	!	!	!	!LO:LB:g=original	!	!
=4	=4	=4	=4	=4	=4	=4	=4	=4	=4	=4	=4	=4	=4	=4	=4	=4	=4	=4	=4	=4	=4
!	!	!	!	!	!LO:TX:t=P:problem=mixed beam	!	!	!	!	!	!	!	!	!	!	!	!	!	!	!	!
8c\L	.	.	16c/LL	f	16c/LL	f	.	.	.	.	.	.	.	.	.	.	.	4ff\	4aa\	4ff\	4aa\
.	.	.	16f/	.	16cc\	.	.	.	.	.	.	.	.	.	.	.	.	.	.	.	.
8c\	.	.	16a/	.	16b\	.	.	.	.	.	.	.	.	.	.	.	.	.	.	.	.
.	.	.	16f/JJ	.	16cc\JJ	.	.	.	.	.	.	.	.	.	.	.	.	.	.	.	.
8c\	.	.	16c/LL	.	16dd\LL	.	.	.	.	.	.	.	.	.	.	.	.	4r	4r	4r	4r
.	.	.	16f/	.	16cc\	.	.	.	.	.	.	.	.	.	.	.	.	.	.	.	.
8c\J	.	.	16a/	.	16b\	.	.	.	.	.	.	.	.	.	.	.	.	.	.	.	.
.	.	.	16f/JJ	.	16cc\JJ	.	.	.	.	.	.	.	.	.	.	.	.	.	.	.	.
=5	=5	=5	=5	=5	=5	=5	=5	=5	=5	=5	=5	=5	=5	=5	=5	=5	=5	=5	=5	=5	=5
!	!	!	!	!LO:DY:t=p	!	!	!	!	!	!	!	!	!	!	!	!	!	!	!	!	!
8G\L	7 5	.	4f 4G/	p	4b\	p	1r	.	1r	.	1r	.	1r	1r	1r	1r	1r	16b\LL	16dd\LL	16b\LL	16dd\LL
.	.	.	.	.	.	.	.	.	.	.	.	.	.	.	.	.	.	16a\	16cc\	16a\	16cc\
8G\	.	.	.	.	.	.	.	.	.	.	.	.	.	.	.	.	.	16b\	16dd\	16b\	16dd\
.	.	.	.	.	.	.	.	.	.	.	.	.	.	.	.	.	.	16cc\JJ	16ee\JJ	16cc\JJ	16ee\JJ
8G\	.	.	4r	.	4r	.	.	.	.	.	.	.	.	.	.	.	.	8dd\L	8ff\L	8dd\L	8ff\L
8G\J	.	.	.	.	.	.	.	.	.	.	.	.	.	.	.	.	.	8dd\J	8ff\J	8dd\J	8ff\J
*Xtremolo	*	*	*	*	*	*	*	*	*	*	*	*	*	*	*	*	*	*	*	*	*
!	!	!	!	!	!	!	!	!	!	!	!	!	!	!	!	!	!	!LO:LB:g=original	!	!	!
=6	=6	=6	=6	=6	=6	=6	=6	=6	=6	=6	=6	=6	=6	=6	=6	=6	=6	=6	=6	=6	=6
!	!	!	!	!LO:DY:t=f	!	!	!	!	!	!	!	!	!	!	!	!	!	!	!	!	!
4G\	.	.	8fL 8G/	f	16gg\LL	f	.	.	.	.	.	.	.	.	.	.	.	4dd\	4ff\	4dd\	4ff\
.	.	.	.	.	16bb\	.	.	.	.	.	.	.	.	.	.	.	.	.	.	.	.
.	.	.	16b/L	.	16ddd\	.	.	.	.	.	.	.	.	.	.	.	.	.	.	.	.
.	.	.	16a/JJ	.	16ccc\JJ	.	.	.	.	.	.	.	.	.	.	.	.	.	.	.	.
4r	.	.	16g/LL	.	16bb\LL	.	.	.	.	.	.	.	.	.	.	.	.	4r	4r	4r	4r
.	.	.	16f/	.	16aa\	.	.	.	.	.	.	.	.	.	.	.	.	.	.	.	.
.	.	.	16e/	.	16gg\	.	.	.	.	.	.	.	.	.	.	.	.	.	.	.	.
.	.	.	16d/JJ	.	16ff\JJ	.	.	.	.	.	.	.	.	.	.	.	.	.	.	.	.
!	!	!	!LO:LB:g=original	!	!	!	!	!	!	!	!	!	!	!	!	!	!	!	!	!LO:LB:g=original	!LO:LB:g=original
=7	=7	=7	=7	=7	=7	=7	=7	=7	=7	=7	=7	=7	=7	=7	=7	=7	=7	=7	=7	=7	=7
*tremolo	*	*	*	*	*	*	*2\right	*	*2\right	*	*2\right	*	*	*	*	*	*	*	*	*	*
!LO:TX:b:i:t=Tutti	!	!	!	!	!	!	!	!	!	!	!	!	!	!	!	!	!	!	!	!	!
8c\L	5_ 3_	.	4cc 4e 4G/	p	4ee\	f	2c\	A-	2ee\	A-	2gg\	A-	4C/	4e/	4cc\	4e/	4cc\	16cc\LL	16ee\LL	16cc\LL	16ee\LL
.	.	.	.	.	.	.	.	.	.	.	.	.	.	.	.	.	.	16b\	16dd\	16b\	16dd\
8c\	.	.	.	.	.	.	.	.	.	.	.	.	.	.	.	.	.	16cc\	16ee\	16cc\	16ee\
.	.	.	.	.	.	.	.	.	.	.	.	.	.	.	.	.	.	16dd\JJ	16ff\JJ	16dd\JJ	16ff\JJ
8c\	.	.	4r	.	4r	.	.	.	.	.	.	.	8C/L	8e/L	8cc\L	8e/L	8cc\L	8ee\L	8gg\L	8ee\L	8gg\L
8c\J	.	.	.	.	.	.	.	.	.	.	.	.	8C/J	8e/J	8cc\J	8e/J	8cc\J	8ee\J	8gg\J	8ee\J	8gg\J
=8	=8	=8	=8	=8	=8	=8	=8	=8	=8	=8	=8	=8	=8	=8	=8	=8	=8	=8	=8	=8	=8
8c\L	.	.	16e/LL	.	16cc\LL	.	4c\	-gnus	4ee\	-gnus	4gg\	-gnus	4C/	4e/	4cc\	4e/	4cc\	4ee\	4gg\	4ee\	4gg\
.	.	.	16c/	.	16ee\	.	.	.	.	.	.	.	.	.	.	.	.	.	.	.	.
8c\	.	.	16g/	.	16gg\	.	.	.	.	.	.	.	.	.	.	.	.	.	.	.	.
.	.	.	16e/JJ	.	16ccc\JJ	.	.	.	.	.	.	.	.	.	.	.	.	.	.	.	.
8c\	.	.	16c/LL	.	16bb\LL	.	4r	.	4r	.	4r	.	4r	4r	4r	4r	4r	4r	4r	4r	4r
.	.	.	16e/	.	16ccc\	.	.	.	.	.	.	.	.	.	.	.	.	.	.	.	.
8c\J	.	.	16g/	.	16bb\	.	.	.	.	.	.	.	.	.	.	.	.	.	.	.	.
.	.	.	16e/JJ	.	16ccc\JJ	.	.	.	.	.	.	.	.	.	.	.	.	.	.	.	.
!	!	!	!	!	!LO:LB:g=original	!	!	!	!	!	!	!	!	!	!	!	!	!	!	!	!
=9	=9	=9	=9	=9	=9	=9	=9	=9	=9	=9	=9	=9	=9	=9	=9	=9	=9	=9	=9	=9	=9
*	*	*	*	*	*	*	*	*	*	*	*	*ij	*	*	*	*	*	*	*	*	*
8c\L	6_ 4_	.	4f 4c/	.	4aa\	p	2c\	De-	2ff\	A-	2aa\	A-	4C/	4c/	4cc\	4c/	4cc\	(16dd\LL	16ff\LL	16dd\LL	16ff\LL
.	.	.	.	.	.	.	.	.	.	.	.	.	.	.	.	.	.	16cc\	16ee\	16cc\	16ee\
8c\	.	.	.	.	.	.	.	.	.	.	.	.	.	.	.	.	.	16dd\	16ff\	16dd\	16ff\
.	.	.	.	.	.	.	.	.	.	.	.	.	.	.	.	.	.	16ee\JJ)	16gg\JJ	16ee\JJ	16gg\JJ
8c\	.	.	4r	.	4r	.	.	.	.	.	.	.	8C/L	8c/L	8cc\L	8c/L	8cc\L	8ff\L	8aa\L	8ff\L	8aa\L
8c\J	.	.	.	.	.	.	.	.	.	.	.	.	8C/J	8c/J	8cc\J	8c/J	8cc\J	8ff\J	8aa\J	8ff\J	8aa\J
=10	=10	=10	=10	=10	=10	=10	=10	=10	=10	=10	=10	=10	=10	=10	=10	=10	=10	=10	=10	=10	=10
8c\L	.	.	16f/LL	.	16cc\LL	f	4c\	-i	4ff\	-gnus	4aa\	-gnus	4C/	4c/	4cc\	4c/	4cc\	4ff\	4aa\	4ff\	4aa\
*	*	*	*	*	*	*	*	*	*	*	*	*Xij	*	*	*	*	*	*	*	*	*
.	.	.	16c/	.	16ff\	.	.	.	.	.	.	.	.	.	.	.	.	.	.	.	.
8c\	.	.	16a/	.	16aa\	.	.	.	.	.	.	.	.	.	.	.	.	.	.	.	.
.	.	.	16f/JJ	.	16ccc\JJ	.	.	.	.	.	.	.	.	.	.	.	.	.	.	.	.
8c\	.	.	16c/LL	.	16bb\LL	.	4r	.	4r	.	4r	.	4r	4r	4r	4r	4r	4r	4r	4r	4r
.	.	.	16f/	.	16ccc\	.	.	.	.	.	.	.	.	.	.	.	.	.	.	.	.
8c\J	.	.	16a/	.	16bb\	.	.	.	.	.	.	.	.	.	.	.	.	.	.	.	.
.	.	.	16f/JJ	.	16ccc\JJ	.	.	.	.	.	.	.	.	.	.	.	.	.	.	.	.
=11	=11	=11	=11	=11	=11	=11	=11	=11	=11	=11	=11	=11	=11	=11	=11	=11	=11	=11	=11	=11	=11
8G\L	7 5	.	4g 4G/	.	4bb\	p	8B\	a-	8dd\	A-	8ff\	A-	4GG/	4g/	4dd\	4g/	4dd\	16b\LL	16dd\LL	16b\LL	16dd\LL
.	.	.	.	.	.	.	.	.	.	.	.	.	.	.	.	.	.	16a\	16cc\	16a\	16cc\
8G\	.	.	.	.	.	.	16B\	-gnus	16dd\	-gnus	16ff\	-gnus	.	.	.	.	.	16b\	16dd\	16b\	16dd\
.	.	.	.	.	.	.	16B\	De-	16dd\	De-	16ff\	De-	.	.	.	.	.	16cc\JJ	16ee\JJ	16cc\JJ	16ee\JJ
!	!	!	!	!	!	!	!	!	!LO:LB:g=original	!	!	!	!	!	!	!	!	!	!	!	!
8G\	.	.	4r	.	4r	.	8B\	-i	8dd\	-i	8ff\	-i	8GG/L	8g/L	8dd\L	8g/L	8dd\L	8dd\L	8ff\L	8dd\L	8ff\L
8G\J	.	.	.	.	.	.	8B\	qui	8dd\	qui	8ff\	qui	8GG/J	8g/J	8dd\J	8g/J	8dd\J	8dd\J	8ff\J	8dd\J	8ff\J
*Xtremolo	*	*	*	*	*	*	*	*	*	*	*	*	*	*	*	*	*	*	*	*	*
!LO:LB:g=original	!	!	!	!	!	!	!	!	!	!	!	!	!	!	!	!	!	!	!LO:LB:g=original	!	!
=12	=12	=12	=12	=12	=12	=12	=12	=12	=12	=12	=12	=12	=12	=12	=12	=12	=12	=12	=12	=12	=12
4G\	.	.	16d/LL	.	16gg\LL	f	8B\	tol-	8dd\	tol-	8ff\	tol-	4GG/	4g/	4dd\	4g/	4dd\	4dd\	4ff\	4dd\	4ff\
.	.	.	16g/	.	16bb\	.	.	.	.	.	.	.	.	.	.	.	.	.	.	.	.
.	.	.	16b/	.	16ddd\	.	16B\	-lis	16dd\	-lis	16ff\	-lis	.	.	.	.	.	.	.	.	.
.	.	.	16g/JJ	.	16ccc\JJ	.	16B\	pec-	16dd\	pec-	16ff\	pec-	.	.	.	.	.	.	.	.	.
4r	.	.	16g/LL	.	16bb\LL	.	16B\LL	-ca-	8ee\	-ca-	8gg\	-ca-	4r	4r	4r	4r	4r	4r	4r	4r	4r
.	.	.	16f/	.	16aa\	.	16G\JJ	.	.	.	.	.	.	.	.	.	.	.	.	.	.
.	.	.	16e/	.	16gg\	.	16A\LL	-ta	8dd\	-ta	8ff\	-ta	.	.	.	.	.	.	.	.	.
.	.	.	16d/JJ	.	16ff\JJ	.	16B\JJ	.	.	.	.	.	.	.	.	.	.	.	.	.	.
!	!	!	!	!	!	!	!LO:LB:g=original	!	!	!	!LO:LB:g=original	!	!LO:LB:g=original	!	!LO:LB:g=original	!LO:LB:g=original	!	!	!	!	!
=13	=13	=13	=13	=13	=13	=13	=13	=13	=13	=13	=13	=13	=13	=13	=13	=13	=13	=13	=13	=13	=13
4C/	.	.	16c/LL	.	16ee\LL	.	8c\	mun-	8cc\	mun-	8ee\	mun-	4C/	4e/	4cc\	4e/	4cc\	4cc\	4ee\	4cc\	4ee\
.	.	.	16c/	.	16cc\	.	.	.	.	.	.	.	.	.	.	.	.	.	.	.	.
.	.	.	16B/	.	16dd\	.	8C/	-di,	8cc\	-di,	8dd\	-di.	.	.	.	.	.	.	.	.	.
.	.	.	16c/JJ	.	16ee\JJ	.	.	.	.	.	.	.	.	.	.	.	.	.	.	.	.
4r	.	.	16d/LL	.	16ff\LL	.	4r	.	4r	.	4r	.	4r	4r	4r	4r	4r	4r	4r	4r	4r
!	!	!	!	!	!LO:TX:t=g	!	!	!	!	!	!	!	!	!	!	!	!	!	!	!	!
.	.	.	16e/	.	16gg\	.	.	.	.	.	.	.	.	.	.	.	.	.	.	.	.
.	.	.	16f/	.	16aa\	.	.	.	.	.	.	.	.	.	.	.	.	.	.	.	.
.	.	.	16d/JJ	.	16bb\JJ	.	.	.	.	.	.	.	.	.	.	.	.	.	.	.	.
!	!	!	!	!	!	!	!	!	!	!	!	!	!	!LO:LB:g=original	!	!	!	!	!	!	!
=14	=14	=14	=14	=14	=14	=14	=14	=14	=14	=14	=14	=14	=14	=14	=14	=14	=14	=14	=14	=14	=14
!	!	!	!	!	!	!	!LO:TX:a:t=1.	!	!LO:TX:a:t=1.	!	!LO:TX:a:t=1.	!	!	!	!	!	!	!	!	!	!
4C/	.	.	4e 4G/	.	4ccc\	.	2r	.	2r	.	2r	.	8r	8r	8r	8r	8r	8r	8r	8r	8r
.	.	.	.	.	.	.	.	.	.	.	.	.	8C/L	8cc\L	8cc\L	8cc\L	8cc\L	8cc\L	8ee\L	8cc\L	8ee\L
4r	.	.	4r	.	4r	.	.	.	.	.	.	.	8GG/	8g\	8g\	8g\	8g\	8cc\	8ee\	8cc\	8ee\
.	.	.	.	.	.	.	.	.	.	.	.	.	8GG/J	8e\J	8e\J	8e\J	8e\J	8cc\J	8ee\J	8cc\J	8ee\J
!	!	!	!	!	!	!	!	!	!	!	!	!	!	!	!	!	!LO:LB:g=original	!	!	!	!
=15	=15	=15	=15	=15	=15	=15	=15	=15	=15	=15	=15	=15	=15	=15	=15	=15	=15	=15	=15	=15	=15
*tremolo	*	*	*	*	*	*	*	*	*	*	*	*	*	*	*	*	*	*	*	*	*
8c\L	6 3	.	16c/LL	.	16a\LL	.	4c\	par-	4a\	par-	4ee\	par-	4C/	4c/	4c/	4c/	4c/	4cc\	4ee\	4cc\	4ee\
.	.	.	16e/	.	16cc\	.	.	.	.	.	.	.	.	.	.	.	.	.	.	.	.
8c\	.	.	16a/	.	16ee\	.	.	.	.	.	.	.	.	.	.	.	.	.	.	.	.
.	.	.	16e/JJ	.	16aa\JJ	.	.	.	.	.	.	.	.	.	.	.	.	.	.	.	.
8c\	.	.	16c/LL	.	16gg#X\LL	.	4c\	-ce	4a\	-ce	4ee\	-ce	4r	4r	4r	4r	4r	4r	4r	4r	4r
.	.	.	16e/	.	16aa\	.	.	.	.	.	.	.	.	.	.	.	.	.	.	.	.
8c\J	.	.	16a/	.	16gg#\	.	.	.	.	.	.	.	.	.	.	.	.	.	.	.	.
.	.	.	16e/JJ	.	16aa\JJ	.	.	.	.	.	.	.	.	.	.	.	.	.	.	.	.
!	!	!	!LO:LB:g=original	!	!	!	!	!	!	!	!	!	!	!	!	!	!	!LO:LB:g=original	!	!	!
=16	=16	=16	=16	=16	=16	=16	=16	=16	=16	=16	=16	=16	=16	=16	=16	=16	=16	=16	=16	=16	=16
*	*	*	*	*	*	*	*	*ij	*	*	*	*	*	*	*	*	*	*	*	*	*
8B\L	6 3	.	16B/LL	.	16g\LL	.	4B\	par-	4g\	no-	4dd\	no-	4GG/	4G/	4g/	4G/	4g/	4b\	4dd\	4b\	4dd\
.	.	.	16d/	.	16b\	.	.	.	.	.	.	.	.	.	.	.	.	.	.	.	.
8B\	.	.	16g/	.	16dd\	.	.	.	.	.	.	.	.	.	.	.	.	.	.	.	.
.	.	.	16d/JJ	.	16gg\JJ	.	.	.	.	.	.	.	.	.	.	.	.	.	.	.	.
8B\	.	.	16B/LL	.	16ff#X\LL	.	4B\	-ce	4g\	-bis	4dd\	-bis	4r	4r	4r	4r	4r	4r	4r	4r	4r
*	*	*	*	*	*	*	*	*Xij	*	*	*	*	*	*	*	*	*	*	*	*	*
.	.	.	16d/	.	16gg\	.	.	.	.	.	.	.	.	.	.	.	.	.	.	.	.
8B\J	.	.	16g/	.	16ff#\	.	.	.	.	.	.	.	.	.	.	.	.	.	.	.	.
.	.	.	16d/JJ	.	16gg\JJ	.	.	.	.	.	.	.	.	.	.	.	.	.	.	.	.
*Xtremolo	*	*	*	*	*	*	*	*	*	*	*	*	*	*	*	*	*	*	*	*	*
!	!	!	!	!	!	!	!	!	!	!	!	!	!	!	!	!	!	!	!	!LO:LB:g=original	!
=17	=17	=17	=17	=17	=17	=17	=17	=17	=17	=17	=17	=17	=17	=17	=17	=17	=17	=17	=17	=17	=17
!LO:TX:t=P:problem=mixed beam	!	!	!	!	!	!	!	!	!	!	!	!	!LO:TX:a:t=14.	!LO:TX:a:t=14.	!LO:TX:a:t=14.	!LO:TX:a:t=7.	!LO:TX:a:t=7.	!	!	!	!
8c\L	6 3	.	16c/LL	.	16ee\LL	.	8c\	no-	8b\	no-	8ee\	no-	0r	0r	0r	0r	0r	8cc\L	4ee\	8cc\L	4ee\
.	.	.	16e/	.	16gg#X\	.	.	.	.	.	.	.	.	.	.	.	.	.	.	.	.
8c\	.	.	16a/	.	16aa\	.	8c\	-bis	8b\	-bis	8ee\	-bis	.	.	.	.	.	8b\J	.	8b\J	.
.	.	.	16e/JJ	.	16bb\JJ	.	.	.	.	.	.	.	.	.	.	.	.	.	.	.	.
8d\	4	.	16d/LL	.	16ccc\LL	.	8d\	Do-	8cc\	Do-	8dd\	Do-	.	.	.	.	.	4a\	8dd\L	4a/	8dd\L
.	.	.	16f#X/	.	16aa\	.	.	.	.	.	.	.	.	.	.	.	.	.	.	.	.
8D/J	#	.	16cc/	.	16ee\	.	8D/	-mi-	8cc\	-mi-	8ff#X\	-mi-	.	.	.	.	.	.	8ff#X\J	.	8ff#X\J
.	.	.	16a/JJ	.	16ff#X\JJ	.	.	.	.	.	.	.	.	.	.	.	.	.	.	.	.
!	!	!	!	!	!LO:LB:g=original	!	!	!	!LO:LB:g=original	!	!	!	!	!	!	!	!	!	!	!	!LO:LB:g=original
=18	=18	=18	=18	=18	=18	=18	=18	=18	=18	=18	=18	=18	=18	=18	=18	=18	=18	=18	=18	=18	=18
!LO:TX:t=P:problem=mixed beam	!	!	!	!	!	!	!	!	!	!	!	!	!	!	!	!	!	!	!	!	!
8G\L	.	.	8bL 8G/	.	8ggL 8b 8d/	.	8G\	-ne	8b\	-ne.	8gg\	-ne.	.	.	.	.	.	8b\L	8gg\L	8b/L	8gg\L
8GG/	.	.	8b 8d/	.	8gg 8b 8d/	.	8r	.	8r	.	8r	.	.	.	.	.	.	8b\	8gg\	8b/	8gg\
!	!	!	!	!	!	!	!LO:TX:a:i:t=Solo.	!	!	!	!	!	!	!	!	!	!	!	!	!	!
8G\J	.	.	8bJ 8d/	.	8ggJ 8b 8d/	.	4r	.	4r	.	4r	.	.	.	.	.	.	8b\J	8gg\J	8b/J	8gg\J
8r	.	.	8r	.	8r	.	.	.	.	.	.	.	.	.	.	.	.	8r	8r	8r	8r
!	!	!	!	!	!	!	!	!	!	!	!LO:LB:g=original	!	!	!	!	!	!	!	!	!	!
=19	=19	=19	=19	=19	=19	=19	=19	=19	=19	=19	=19	=19	=19	=19	=19	=19	=19	=19	=19	=19	=19
*tremolo	*	*	*	*	*tremolo	*	*	*	*	*	*	*	*	*	*	*	*	*	*	*	*
!	!	!LO:DY:t=piano	!	!LO:DY:t=piano	!	!LO:DY:t=piano	!	!	!LO:TX:a:t=5.	!	!LO:TX:a:t=5.	!	!	!	!	!	!	!LO:TX:a:t=5.	!LO:TX:a:t=5.	!LO:TX:a:t=5	!LO:TX:a:t=5.
8G\L	5 3	p	16B/LL	p	16d/LL	p	32G\LLL	A-	0r	.	0r	.	.	.	.	.	.	0r	0r	0r	0r
.	.	.	.	.	.	.	32F#X\	.	.	.	.	.	.	.	.	.	.	.	.	.	.
.	.	.	16B/	.	16d/	.	32G\	.	.	.	.	.	.	.	.	.	.	.	.	.	.
.	.	.	.	.	.	.	32A\JJJ	.	.	.	.	.	.	.	.	.	.	.	.	.	.
8G\	.	.	16B/	.	16d/	.	32B\LLL	.	.	.	.	.	.	.	.	.	.	.	.	.	.
.	.	.	.	.	.	.	32A\	.	.	.	.	.	.	.	.	.	.	.	.	.	.
.	.	.	16B/JJ	.	16d/JJ	.	32B\	.	.	.	.	.	.	.	.	.	.	.	.	.	.
.	.	.	.	.	.	.	32c\JJJ	.	.	.	.	.	.	.	.	.	.	.	.	.	.
*	*	*	*	*	*Xtremolo	*	*	*	*	*	*	*	*	*	*	*	*	*	*	*	*
8G\	6 4	.	16B/LL	.	16d/LL	.	16d\LL	-gnus	.	.	.	.	.	.	.	.	.	.	.	.	.
.	.	.	16B/	.	16d/	.	16B\	.	.	.	.	.	.	.	.	.	.	.	.	.	.
8G\J	.	.	16c/	.	16e/	.	16c\	.	.	.	.	.	.	.	.	.	.	.	.	.	.
.	.	.	16c/JJ	.	16e/JJ	.	16e\JJ	.	.	.	.	.	.	.	.	.	.	.	.	.	.
!	!	!	!	!	!	!	!LO:LB:g=original	!	!	!	!	!	!	!	!	!	!	!	!	!	!
=20	=20	=20	=20	=20	=20	=20	=20	=20	=20	=20	=20	=20	=20	=20	=20	=20	=20	=20	=20	=20	=20
*	*	*	*tremolo	*	*tremolo	*	*	*	*	*	*	*	*	*	*	*	*	*	*	*	*
8G\L	5 3	.	16B/LL	.	16d/LL	.	16.d\LL	De-	.	.	.	.	.	.	.	.	.	.	.	.	.
.	.	.	16B/	.	16d/	.	.	.	.	.	.	.	.	.	.	.	.	.	.	.	.
.	.	.	.	.	.	.	32B\JJk	.	.	.	.	.	.	.	.	.	.	.	.	.	.
8G\	.	.	16B/	.	16d/	.	4G\	-i	.	.	.	.	.	.	.	.	.	.	.	.	.
.	.	.	16B/JJ	.	16d/JJ	.	.	.	.	.	.	.	.	.	.	.	.	.	.	.	.
*	*	*	*Xtremolo	*	*Xtremolo	*	*	*	*	*	*	*	*	*	*	*	*	*	*	*	*
8G\	6 4	.	16B/LL	.	16d/LL	.	.	.	.	.	.	.	.	.	.	.	.	.	.	.	.
.	.	.	16B/	.	16d/	.	.	.	.	.	.	.	.	.	.	.	.	.	.	.	.
8G\J	.	.	16c/	.	16e/	.	16.c\LL	qui	.	.	.	.	.	.	.	.	.	.	.	.	.
.	.	.	16c/JJ	.	16e/JJ	.	.	.	.	.	.	.	.	.	.	.	.	.	.	.	.
.	.	.	.	.	.	.	32e\JJk	.	.	.	.	.	.	.	.	.	.	.	.	.	.
*Xtremolo	*	*	*	*	*	*	*	*	*	*	*	*	*	*	*	*	*	*	*	*	*
=21	=21	=21	=21	=21	=21	=21	=21	=21	=21	=21	=21	=21	=21	=21	=21	=21	=21	=21	=21	=21	=21
*	*	*	*tremolo	*	*tremolo	*	*	*	*	*	*	*	*	*	*	*	*	*	*	*	*
8G\L	5 3	.	16B/LL	.	16d/LL	.	16.d\LL	tol-	.	.	.	.	0r	0r	0r	1r	1r	.	.	.	.
.	.	.	16B/	.	16d/	.	.	.	.	.	.	.	.	.	.	.	.	.	.	.	.
.	.	.	.	.	.	.	32B\JJk	.	.	.	.	.	.	.	.	.	.	.	.	.	.
8G\	.	.	16B/	.	16d/	.	4G\	-lis	.	.	.	.	.	.	.	.	.	.	.	.	.
.	.	.	16B/JJ	.	16d/JJ	.	.	.	.	.	.	.	.	.	.	.	.	.	.	.	.
*	*	*	*Xtremolo	*	*Xtremolo	*	*	*	*	*	*	*	*	*	*	*	*	*	*	*	*
8G\	.	.	16B/LL	.	16d/LL	.	.	.	.	.	.	.	.	.	.	.	.	.	.	.	.
.	.	.	16B/	.	16d/	.	.	.	.	.	.	.	.	.	.	.	.	.	.	.	.
!	!	!	!	!	!	!	!LO:N:vis=16	!	!	!	!	!	!	!	!	!	!	!	!	!	!
8B\J	6 3	.	16c/	.	16e/	.	16.B\LL	pec-	.	.	.	.	.	.	.	.	.	.	.	.	.
.	.	.	16c/JJ	.	16e/JJ	.	.	.	.	.	.	.	.	.	.	.	.	.	.	.	.
.	.	.	.	.	.	.	32d\JJk	.	.	.	.	.	.	.	.	.	.	.	.	.	.
=22	=22	=22	=22	=22	=22	=22	=22	=22	=22	=22	=22	=22	=22	=22	=22	=22	=22	=22	=22	=22	=22
4c\	5 3	.	4e/	.	4a/	.	32c\LLL	-ca-	.	.	.	.	.	.	.	.	.	.	.	.	.
.	.	.	.	.	.	.	32d\	.	.	.	.	.	.	.	.	.	.	.	.	.	.
.	.	.	.	.	.	.	32e\	.	.	.	.	.	.	.	.	.	.	.	.	.	.
.	.	.	.	.	.	.	32d\JJJ	.	.	.	.	.	.	.	.	.	.	.	.	.	.
.	.	.	.	.	.	.	32c\LLL	.	.	.	.	.	.	.	.	.	.	.	.	.	.
.	.	.	.	.	.	.	32d\	.	.	.	.	.	.	.	.	.	.	.	.	.	.
.	.	.	.	.	.	.	32c\	.	.	.	.	.	.	.	.	.	.	.	.	.	.
.	.	.	.	.	.	.	32B\JJJ	.	.	.	.	.	.	.	.	.	.	.	.	.	.
8r	.	.	8r	.	8r	.	32A\LLL	.	.	.	.	.	.	.	.	.	.	.	.	.	.
.	.	.	.	.	.	.	32B\	.	.	.	.	.	.	.	.	.	.	.	.	.	.
.	.	.	.	.	.	.	32c\	.	.	.	.	.	.	.	.	.	.	.	.	.	.
.	.	.	.	.	.	.	32B\JJJ	.	.	.	.	.	.	.	.	.	.	.	.	.	.
8c#X\	6 5	.	8e/	.	8g/	.	32A\LLL	.	.	.	.	.	.	.	.	.	.	.	.	.	.
.	.	.	.	.	.	.	32B\	.	.	.	.	.	.	.	.	.	.	.	.	.	.
.	.	.	.	.	.	.	32A\	-ta	.	.	.	.	.	.	.	.	.	.	.	.	.
.	.	.	.	.	.	.	32G\JJJ	.	.	.	.	.	.	.	.	.	.	.	.	.	.
!LO:LB:g=original	!	!	!	!	!	!	!	!	!	!	!	!	!	!	!	!	!	!	!	!	!
=23	=23	=23	=23	=23	=23	=23	=23	=23	=23	=23	=23	=23	=23	=23	=23	=23	=23	=23	=23	=23	=23
!LO:TX:t=P:problem=mixed beam	!	!	!	!	!	!	!LO:TX:t=P:problem=mixed beam	!	!	!	!	!	!	!	!	!	!	!	!	!	!
8d\L	#	.	8c/L	.	8dd\L	.	8d\L	mun-	2r	.	2r	.	.	.	.	2r	2r	2r	2r	2r	2r
8D/	.	.	8f#X 8A/	.	8ddd\	.	8D/J	-di	.	.	.	.	.	.	.	.	.	.	.	.	.
8D/J	.	.	8f#J 8A/	.	8ddd\J	.	4r	.	.	.	.	.	.	.	.	.	.	.	.	.	.
8r	.	.	8r	.	8r	.	.	.	.	.	.	.	.	.	.	.	.	.	.	.	.
!	!	!	!LO:LB:g=original	!	!	!	!LO:LB:g=original	!	!	!	!	!	!	!	!	!	!	!	!	!	!
=24	=24	=24	=24	=24	=24	=24	=24	=24	=24	=24	=24	=24	=24	=24	=24	=24	=24	=24	=24	=24	=24
!LO:TX:b:i:t=Tutti	!	!	!	!	!	!	!	!	!	!	!	!	!	!	!	!	!	!	!	!	!
8.d\L	#	.	8.cc\L	f	8.ff#X\L	f	8.d\L	qui	8.a\	Mi-	8.ff#X|\L	Mi-	.	.	.	8.dd\L	8.dd\L	8.dd\L	8.ff#X\L	8.dd\L	8.ff#X\L
16d\Jk	.	.	16cc\Jk	.	16ff#\Jk	.	16d\Jk	tol-	16a\	-ſe-	16ff#|\Jk	-se-	.	.	.	16dd\Jk	16dd\Jk	16dd\Jk	16ff#\Jk	16dd\Jk	16ff#\Jk
8.c\L	+4r 2	.	8a/L	.	8.ff#\L	.	8.c\L	-lis	8.a\	-re-	8.ff#|\L	-re-	.	.	.	8.dd\L	8.dd\L	8.cc\L	8.ff#\L	8.cc\L	8.ff#\L
.	.	.	8a/J	.	.	.	.	.	.	.	.	.	.	.	.	.	.	.	.	.	.
16c\Jk	.	.	.	.	16ff#\Jk	.	16c\Jk	pec-	16a\	-re	16ff#|\Jk	-re	.	.	.	16dd\Jk	16dd\Jk	16cc\Jk	16ff#\Jk	16cc\Jk	16ff#\Jk
=25	=25	=25	=25	=25	=25	=25	=25	=25	=25	=25	=25	=25	=25	=25	=25	=25	=25	=25	=25	=25	=25
8B\L	6 3	.	8b/L	.	8gg\L	p	8B\	-ca-	8b\	no-	(16.gg\LL	no-	0r	0r	0r	4dd\	4dd\	8b\L	8gg\L	8b\L	8gg\L
.	.	.	.	.	.	.	.	.	.	.	32dd\JJk)	.	.	.	.	.	.	.	.	.	.
8G\J	.	.	8b/	.	8dd\	.	8B\	-ta	8b\	-bis	8dd|\	-bis,	.	.	.	.	.	8dd\	8bb\	8dd\	8bb\
4r	.	.	8a/	.	8cc\	.	4r	.	4r	.	4r	.	.	.	.	4r	4r	8cc\	8aa\	8cc\	8aa\
.	.	.	8g/J	.	8b\J	.	.	.	.	.	.	.	.	.	.	.	.	8b\J	8gg\J	8b\J	8gg\J
!	!	!	!	!	!	!	!	!	!	!	!	!	!	!	!	!	!	!	!LO:LB:g=original	!	!
=26	=26	=26	=26	=26	=26	=26	=26	=26	=26	=26	=26	=26	=26	=26	=26	=26	=26	=26	=26	=26	=26
8.d\L	#	.	8.cc\L	.	8.ff#X\L	f	8.d\L	qui	8.a\	mi-	8.ff#X\L	Mi-	.	.	.	8.dd\L	8.dd\L	8.dd\L	8.ff#X\L	8.dd\L	8.ff#X\L
16d\Jk	.	.	16cc\Jk	.	16ff#\Jk	.	16d\Jk	tol-	16a\	-ſe-	16ff#\Jk	-ſe-	.	.	.	16dd\Jk	16dd\Jk	16dd\Jk	16ff#\Jk	16dd\Jk	16ff#\Jk
8.c\L	+4r 2	.	8a/L	.	8.ff#\L	.	8.c\L	-lis	8.a\	-re-	8.ff#\L	-re-	.	.	.	8.dd\L	8.dd\L	8.cc\L	8.ff#\L	8.cc\L	8.ff#\L
.	.	.	8a/J	.	.	.	.	.	.	.	.	.	.	.	.	.	.	.	.	.	.
16c\Jk	.	.	.	.	16ff#\Jk	.	16c\Jk	pec-	16a\	-re	16ff#\Jk	-re	.	.	.	16dd\Jk	16dd\Jk	16cc\Jk	16ff#\Jk	16cc\Jk	16ff#\Jk
!	!	!	!	!	!	!	!	!	!LO:LB:g=original	!	!	!	!	!	!	!	!	!	!	!	!
=27	=27	=27	=27	=27	=27	=27	=27	=27	=27	=27	=27	=27	=27	=27	=27	=27	=27	=27	=27	=27	=27
8B\L	.	.	8b/L	.	8gg\L	.	8B\	-ca-	8b\	no-	16.gg\LL	no-	.	.	.	4dd\	4dd\	8b\L	8gg\L	8b\L	8gg\L
.	.	.	.	.	.	.	.	.	.	.	32dd\JJk	.	.	.	.	.	.	.	.	.	.
8G\J	.	.	8b/	.	8dd\	p	8B\	-ta	8b\	-bis,	8dd\	-bis,	.	.	.	.	.	8dd\	8bb\	8dd\	8bb\
4r	.	.	8a/	.	8cc\	.	4r	.	4r	.	4r	.	.	.	.	4r	4r	8cc\	8aa\	8cc\	8aa\
.	.	.	8g/J	.	8b\J	.	.	.	.	.	.	.	.	.	.	.	.	8b\J	8gg\J	8b\J	8gg\J
=28	=28	=28	=28	=28	=28	=28	=28	=28	=28	=28	=28	=28	=28	=28	=28	=28	=28	=28	=28	=28	=28
*	*	*	*	*	*	*	*	*ij	*	*	*	*	*	*	*	*	*	*	*	*	*
8.G\L	8_ 3_	.	8.ffn\L	.	8.bb\L	f	8.G\	qui	8.g\	mi-	8.gg\	mi-	.	.	.	2g/	2g/	8dd\L	4ffn\	4b/	4ffn\
.	.	.	.	.	.	.	.	.	.	.	.	.	.	.	.	.	.	8b\J	.	.	.
16G\Jk	.	.	16ff\Jk	.	16bb\Jk	.	16G\	tol-	16g\	-ſe-	16gg\	-ſe-	.	.	.	.	.	.	.	.	.
!	!	!	!	!	!	!	!	!	!	!	!LO:LB:g=original	!	!	!	!	!	!	!	!	!	!
8.Fn\L	.	.	8dd\L	.	8.bb\L	.	8.Fn\	-lis	8.b\	-re-	8.ff\	-re-	.	.	.	.	.	4g\	4dd\	4g/	4dd\
.	.	.	(16dd\L	.	.	.	.	.	.	.	.	.	.	.	.	.	.	.	.	.	.
16F\Jk	.	.	16dd\JJ)	.	16bb\Jk	.	16F\	pec-	16b\	-re	16ff\	-re	.	.	.	.	.	.	.	.	.
!	!	!	!	!	!LO:LB:g=original	!	!	!	!	!	!	!	!	!	!	!	!	!	!	!	!
=29	=29	=29	=29	=29	=29	=29	=29	=29	=29	=29	=29	=29	=29	=29	=29	=29	=29	=29	=29	=29	=29
8E\L	6 3	.	8ee\L	.	8ccc\L	.	8E\	-ca-	8cc\	no-	8ee\	no-	1r	1r	1r	4e/	4cc\	8g\L	8ee\L	8g/L	8ee\L
8E\J	.	.	8ee\	.	8gg\	.	8E\	-ta	8cc\	-bis,	8ee\	-bis,	.	.	.	.	.	8ee\	8gg\	8g/	8gg\
4r	.	.	8dd\	.	8ffn\	.	4r	.	4r	.	4r	.	.	.	.	4r	4r	8dd\	8ff\	8f/	8ff\
.	.	.	8cc\J	.	8ee\J	.	.	.	.	.	.	.	.	.	.	.	.	8cc\J	8ee\J	8e/J	8ee\J
!	!	!	!	!	!	!	!LO:LB:g=original	!	!	!	!	!	!	!	!	!LO:LB:g=original	!	!LO:LB:g=original	!	!	!
=30	=30	=30	=30	=30	=30	=30	=30	=30	=30	=30	=30	=30	=30	=30	=30	=30	=30	=30	=30	=30	=30
!	!	!	!	!	!	!	!	!	!	!	!	!	!	!	!	!LO:TX:a:t=1.	!LO:TX:a:t=1.	!LO:TX:t=P:problem=mixed beam	!	!LO:TX:t=P:problem=mixed beam	!
8.F\L	6_ 3	.	8f/L	.	8aa\L	.	8.F\	qui	8.a\	mi-	8.ff\	Mi-	.	.	.	2r	2r	8ff\L	8aa\L	8ff\L	8aa\L
.	.	.	8a/	.	8ff\	.	.	.	.	.	.	.	.	.	.	.	.	8a/	8ff\	8a/	8ff\
16F\Jk	.	.	.	.	.	.	16F\	tol-	16a\	-ſe-	16f/	-ſe-	.	.	.	.	.	.	.	.	.
8.F\L	_ 3	.	8f/	.	8dd\	.	8.F\	-lis	8a\	-re-	8dd\	-re-	.	.	.	.	.	8f/	8dd\	8f/	8dd\
!	!	!	!LO:TX:b:t=fis	!	!	!	!	!	!	!	!	!	!	!	!	!	!	!	!	!	!
.	.	.	8f#X/J	.	8cc\J	.	.	.	8e\	-re	8cc\	-re	.	.	.	.	.	8e/J	8cc\J	8e/J	8cc\J
16F#X\Jk	5 3	.	.	.	.	.	16F#X\	pec-	.	.	.	.	.	.	.	.	.	.	.	.	.
!LO:LB:g=original	!	!	!	!	!	!	!	!	!	!	!	!	!	!	!	!	!	!	!	!LO:LB:g=original	!LO:LB:g=original
=31	=31	=31	=31	=31	=31	=31	=31	=31	=31	=31	=31	=31	=31	=31	=31	=31	=31	=31	=31	=31	=31
!LO:TX:t=P:problem=mixed beam	!	!	!	!	!	!	!LO:TX:t=P:problem=mixed beam	!	!	!	!	!	!	!	!	!	!	!	!	!	!
8G\L	.	.	8g/L	.	8b/L	.	8G\L	-ca-	8e\	no-	8cc\	no-	8GG/L	8G/L	8g/L	8g/L	8g/L	8d/L	8b\L	8d/L	8b\L
8GG/J	5 3	.	8b 8d 8G/	.	8gg 8b 8d/	.	8GG/J	-ta	8d\	-bis,	8b\	-bis,	8GG/	8G/	8g/	8g/	8g/	8G/	8gg\	8G/	8gg\
*	*	*	*	*	*	*	*	*Xij	*	*	*	*	*	*	*	*	*	*	*	*	*
4r	.	.	8bJ 8d 8G/	.	8ggJ 8b 8d/	.	4r	.	4r	.	4r	.	8GG/J	8G/J	8g/J	8g/J	8g/J	8G/J	8gg\J	8G/J	8gg\J
.	.	.	8r	.	8r	.	.	.	.	.	.	.	8r	8r	8r	8r	8r	8r	8r	8r	8r
!	!	!	!	!	!	!	!	!	!LO:LB:g=original	!	!	!	!	!	!	!	!	!	!	!	!
=32	=32	=32	=32	=32	=32	=32	=32	=32	=32	=32	=32	=32	=32	=32	=32	=32	=32	=32	=32	=32	=32
*tremolo	*	*	*	*	*	*	*	*	*	*	*	*	*	*	*	*	*	*	*	*	*
!	!	!LO:DY:t=piano.	!	!	!	!	!LO:TX:a:t=6.	!	!LO:TX:a:t=6.	!	!LO:TX:a:t=6.	!	!LO:TX:a:t=6.	!LO:TX:a:t=6.	!LO:TX:a:t=6.	!LO:TX:a:t=6.	!LO:TX:a:t=6	!	!	!	!
8c\L	5_ 3_	p	4e 4G/	.	4cc 4e 4G/	.	0r	.	0r	.	0r	.	0r	0r	0r	0r	0r	16cc\LL	16ee\LL	16cc\LL	16ee\LL
.	.	.	.	.	.	.	.	.	.	.	.	.	.	.	.	.	.	16b\	16dd\	16b\	16dd\
8c\	.	.	.	.	.	.	.	.	.	.	.	.	.	.	.	.	.	16cc\	16ee\	16cc\	16ee\
.	.	.	.	.	.	.	.	.	.	.	.	.	.	.	.	.	.	16dd\JJ	16ff\JJ	16dd\JJ	16ff\JJ
8c\	.	.	4r	p	4r	p	.	.	.	.	.	.	.	.	.	.	.	8ee\L	8gg\L	8ee\L	8gg\L
8c\J	.	.	.	.	.	.	.	.	.	.	.	.	.	.	.	.	.	8ee\J	8gg\J	8ee\J	8gg\J
!	!	!	!LO:LB:g=original	!	!	!	!	!	!	!	!	!	!	!	!	!	!	!	!	!	!
=33	=33	=33	=33	=33	=33	=33	=33	=33	=33	=33	=33	=33	=33	=33	=33	=33	=33	=33	=33	=33	=33
!	!	!	!	!	!LO:TX:t=P:problem=mixed beam	!	!	!	!	!	!	!	!	!	!	!	!	!	!	!	!
8c\L	.	.	16eLL 16G/	.	16c/LL	f	.	.	.	.	.	.	.	.	.	.	.	4ee\	4gg\	4ee\	4gg\
.	.	.	16e/	.	16cc\	.	.	.	.	.	.	.	.	.	.	.	.	.	.	.	.
8c\	.	.	16d/	.	16b\	.	.	.	.	.	.	.	.	.	.	.	.	.	.	.	.
.	.	.	16e/JJ	.	16cc\JJ	.	.	.	.	.	.	.	.	.	.	.	.	.	.	.	.
8c\	.	.	16f/LL	.	16dd\LL	.	.	.	.	.	.	.	.	.	.	.	.	4r	4r	4r	4r
.	.	.	16e/	.	16cc\	.	.	.	.	.	.	.	.	.	.	.	.	.	.	.	.
8c\J	.	.	16d/	.	16b\	.	.	.	.	.	.	.	.	.	.	.	.	.	.	.	.
.	.	.	16e/JJ	.	16cc\JJ	.	.	.	.	.	.	.	.	.	.	.	.	.	.	.	.
!	!	!	!	!	!	!	!	!	!	!	!	!	!	!	!	!	!	!	!LO:LB:g=original	!	!
=34	=34	=34	=34	=34	=34	=34	=34	=34	=34	=34	=34	=34	=34	=34	=34	=34	=34	=34	=34	=34	=34
!	!	!	!	!	!	!LO:DY:t=p	!	!	!	!	!	!	!	!	!	!	!	!	!	!	!
8c\L	6_ 4_	.	4f 4A/	.	4a/	p	.	.	.	.	.	.	.	.	.	.	.	16dd\LL	16ff\LL	16dd\LL	16ff\LL
.	.	.	.	.	.	.	.	.	.	.	.	.	.	.	.	.	.	16cc\	16ee\	16cc\	16ee\
8c\	.	.	.	.	.	.	.	.	.	.	.	.	.	.	.	.	.	16dd\	16ff\	16dd\	16ff\
.	.	.	.	.	.	.	.	.	.	.	.	.	.	.	.	.	.	16ee\JJ	16gg\JJ	16ee\JJ	16gg\JJ
8c\	.	.	4r	.	4r	.	.	.	.	.	.	.	.	.	.	.	.	8ff\L	8aa\L	8ff\L	8aa\L
8c\J	.	.	.	.	.	.	.	.	.	.	.	.	.	.	.	.	.	8ff\J	8aa\J	8ff\J	8aa\J
=35	=35	=35	=35	=35	=35	=35	=35	=35	=35	=35	=35	=35	=35	=35	=35	=35	=35	=35	=35	=35	=35
!	!	!	!	!	!LO:TX:t=P:problem=mixed beam	!	!	!	!	!	!	!	!	!	!	!	!	!	!	!	!
8c\L	.	.	16c/LL	.	16c/LL	f	.	.	.	.	.	.	.	.	.	.	.	4ff\	4aa\	4ff\	4aa\
.	.	.	16f/	.	16cc\	.	.	.	.	.	.	.	.	.	.	.	.	.	.	.	.
8c\	.	.	16a/	.	16b\	.	.	.	.	.	.	.	.	.	.	.	.	.	.	.	.
.	.	.	16f/JJ	.	16cc\JJ	.	.	.	.	.	.	.	.	.	.	.	.	.	.	.	.
8c\	.	.	16c/LL	.	16dd\LL	.	.	.	.	.	.	.	.	.	.	.	.	4r	4r	4r	4r
.	.	.	16f/	.	16cc\	.	.	.	.	.	.	.	.	.	.	.	.	.	.	.	.
8c\J	.	.	16a/	.	16b\	.	.	.	.	.	.	.	.	.	.	.	.	.	.	.	.
.	.	.	16f/JJ	.	16cc\JJ	.	.	.	.	.	.	.	.	.	.	.	.	.	.	.	.
=36	=36	=36	=36	=36	=36	=36	=36	=36	=36	=36	=36	=36	=36	=36	=36	=36	=36	=36	=36	=36	=36
!	!	!	!	!	!	!LO:DY:t=p	!	!	!	!	!	!	!	!	!	!	!	!	!	!	!
8G\L	7 5	.	4f 4G/	.	4b\	p	1r	.	1r	.	1r	.	1r	1r	1r	1r	1r	16b\LL	16dd\LL	16b\LL	16dd\LL
.	.	.	.	.	.	.	.	.	.	.	.	.	.	.	.	.	.	16a\	16cc\	16a\	16cc\
8G\	.	.	.	.	.	.	.	.	.	.	.	.	.	.	.	.	.	16b\	16dd\	16b\	16dd\
.	.	.	.	.	.	.	.	.	.	.	.	.	.	.	.	.	.	16cc\JJ	16ee\JJ	16cc\JJ	16ee\JJ
8G\	.	.	4r	.	4r	.	.	.	.	.	.	.	.	.	.	.	.	8dd\L	8ff\L	8dd\L	8ff\L
8G\J	.	.	.	.	.	.	.	.	.	.	.	.	.	.	.	.	.	8dd\J	8ff\J	8dd\J	8ff\J
*Xtremolo	*	*	*	*	*	*	*	*	*	*	*	*	*	*	*	*	*	*	*	*	*
=37	=37	=37	=37	=37	=37	=37	=37	=37	=37	=37	=37	=37	=37	=37	=37	=37	=37	=37	=37	=37	=37
4G\	.	.	8fL 8G/	.	16gg\LL	f	.	.	.	.	.	.	.	.	.	.	.	4dd\	4ff\	4dd\	4ff\
.	.	.	.	.	16bb\	.	.	.	.	.	.	.	.	.	.	.	.	.	.	.	.
.	.	.	16b/L	.	16ddd\	.	.	.	.	.	.	.	.	.	.	.	.	.	.	.	.
.	.	.	16a/JJ	.	16ccc\JJ	.	.	.	.	.	.	.	.	.	.	.	.	.	.	.	.
4r	.	.	16g/LL	.	16bb\LL	.	.	.	.	.	.	.	.	.	.	.	.	4r	4r	4r	4r
.	.	.	16f/	.	16aa\	.	.	.	.	.	.	.	.	.	.	.	.	.	.	.	.
.	.	.	16e/	.	16gg\	.	.	.	.	.	.	.	.	.	.	.	.	.	.	.	.
.	.	.	16d/JJ	.	16ff\JJ	.	.	.	.	.	.	.	.	.	.	.	.	.	.	.	.
!	!	!	!	!	!	!	!	!	!	!	!	!	!	!	!	!	!LO:LB:g=original	!	!	!	!
=38	=38	=38	=38	=38	=38	=38	=38	=38	=38	=38	=38	=38	=38	=38	=38	=38	=38	=38	=38	=38	=38
*tremolo	*	*	*	*	*	*	*	*	*	*	*	*	*	*	*	*	*	*	*	*	*
!LO:TX:b:i:t=Tutti	!	!	!	!	!	!	!	!	!	!	!	!	!	!	!	!	!	!	!	!	!
8c\L	5_ 3_	.	4cc 4e 4G/	.	4ee\	f	2c\	A-	2ee\	A-	2gg\	A-	4C/	4e/	4cc\	4e/	4cc\	16cc\LL	16ee\LL	16cc\LL	16ee\LL
.	.	.	.	.	.	.	.	.	.	.	.	.	.	.	.	.	.	16b\	16dd\	16b\	16dd\
8c\	.	.	.	.	.	.	.	.	.	.	.	.	.	.	.	.	.	16cc\	16ee\	16cc\	16ee\
.	.	.	.	.	.	.	.	.	.	.	.	.	.	.	.	.	.	16dd\JJ	16ff\JJ	16dd\JJ	16ff\JJ
8c\	.	.	4r	.	4r	.	.	.	.	.	.	.	8C/L	8e/L	8cc\L	8e/L	8cc\L	8ee\L	8gg\L	8ee\L	8gg\L
8c\J	.	.	.	.	.	.	.	.	.	.	.	.	8C/J	8e/J	8cc\J	8e/J	8cc\J	8ee\J	8gg\J	8ee\J	8gg\J
!	!	!	!	!	!	!	!	!	!	!	!	!	!	!	!	!	!	!LO:LB:g=original	!	!	!
=39	=39	=39	=39	=39	=39	=39	=39	=39	=39	=39	=39	=39	=39	=39	=39	=39	=39	=39	=39	=39	=39
8c\L	.	.	16e/LL	.	16cc\LL	.	4c\	-gnus	4ee\	-gnus	4gg\	-gnus	4C/	4e/	4cc\	4e/	4cc\	4ee\	4gg\	4ee\	4gg\
.	.	.	16c/	.	16ee\	.	.	.	.	.	.	.	.	.	.	.	.	.	.	.	.
8c\	.	.	16g/	.	16gg\	.	.	.	.	.	.	.	.	.	.	.	.	.	.	.	.
.	.	.	16e/JJ	.	16ccc\JJ	.	.	.	.	.	.	.	.	.	.	.	.	.	.	.	.
8c\	.	.	16c/LL	.	16bb\LL	.	4r	.	4r	.	4r	.	4r	4r	4r	4r	4r	4r	4r	4r	4r
.	.	.	16e/	.	16ccc\	.	.	.	.	.	.	.	.	.	.	.	.	.	.	.	.
8c\J	.	.	16g/	.	16bb\	.	.	.	.	.	.	.	.	.	.	.	.	.	.	.	.
.	.	.	16e/JJ	.	16ccc\JJ	.	.	.	.	.	.	.	.	.	.	.	.	.	.	.	.
!	!	!	!	!	!	!	!	!	!	!	!	!	!	!	!	!	!	!	!	!LO:LB:g=original	!LO:LB:g=original
=40	=40	=40	=40	=40	=40	=40	=40	=40	=40	=40	=40	=40	=40	=40	=40	=40	=40	=40	=40	=40	=40
*	*	*	*	*	*	*	*	*	*	*ij	*	*	*	*	*	*	*	*	*	*	*
8c\L	6_ 4_	.	4c/	.	4aa\	p	2c\	De-	2ff\	A-	2aa\	A-	4C/	4c/	4cc\	4c/	4cc\	16dd\LL	16ff\LL	16dd\LL	16ff\LL
.	.	.	.	.	.	.	.	.	.	.	.	.	.	.	.	.	.	16cc\	16ee\	16cc\	16ee\
8c\	.	.	.	.	.	.	.	.	.	.	.	.	.	.	.	.	.	16dd\	16ff\	16dd\	16ff\
.	.	.	.	.	.	.	.	.	.	.	.	.	.	.	.	.	.	16ee\JJ	16gg\JJ	16ee\JJ	16gg\JJ
8c\	.	.	4r	.	4r	.	.	.	.	.	.	.	8C/L	8c/L	8cc\L	8c/L	8cc\L	8ff\L	8aa\L	8ff\L	8aa\L
8c\J	.	.	.	.	.	.	.	.	.	.	.	.	8C/J	8c/J	8cc\J	8c/J	8cc\J	8ff\J	8aa\J	8ff\J	8aa\J
!	!	!	!	!	!LO:LB:g=original	!	!	!	!	!	!LO:LB:g=original	!	!	!	!LO:LB:g=original	!	!	!	!LO:LB:g=original	!	!
=41	=41	=41	=41	=41	=41	=41	=41	=41	=41	=41	=41	=41	=41	=41	=41	=41	=41	=41	=41	=41	=41
8c\L	.	.	16f/LL	.	16cc\LL	f	4c\	-i	4ff\	-gnus	4aa\	-gnus,	4C/	4c/	4cc\	4c/	4cc\	4ff\	4aa\	4ff\	4aa\
*	*	*	*	*	*	*	*	*	*	*Xij	*	*	*	*	*	*	*	*	*	*	*
.	.	.	16c/	.	16ff\	.	.	.	.	.	.	.	.	.	.	.	.	.	.	.	.
8c\	.	.	16a/	.	16aa\	.	.	.	.	.	.	.	.	.	.	.	.	.	.	.	.
.	.	.	16f/JJ	.	16ccc\JJ	.	.	.	.	.	.	.	.	.	.	.	.	.	.	.	.
8c\	.	.	16c/LL	.	16bb\LL	.	4r	.	4r	.	4r	.	4r	4r	4r	4r	4r	4r	4r	4r	4r
.	.	.	16f/	.	16ccc\	.	.	.	.	.	.	.	.	.	.	.	.	.	.	.	.
8c\J	.	.	16a/	.	16bb\	.	.	.	.	.	.	.	.	.	.	.	.	.	.	.	.
.	.	.	16f/JJ	.	16ccc\JJ	.	.	.	.	.	.	.	.	.	.	.	.	.	.	.	.
!	!	!	!LO:LB:g=original	!	!	!	!	!	!	!	!	!	!LO:LB:g=original	!	!	!	!	!	!	!	!
=42	=42	=42	=42	=42	=42	=42	=42	=42	=42	=42	=42	=42	=42	=42	=42	=42	=42	=42	=42	=42	=42
!	!	!	!	!	!	!	!LO:TX:t=P:problem=wykreślony tekst "qui tollis pecca"	!	!	!	!	!	!	!	!	!	!	!	!	!	!
8G\L	7 5	.	4g 4G/	.	4bb\	p	8B\	a-	8dd\	a-	8ff\	a-	4GG/	4g/	4dd\	4g/	4dd\	16b\LL	16dd\LL	16b\LL	16dd\LL
.	.	.	.	.	.	.	.	.	.	.	.	.	.	.	.	.	.	16a\	16cc\	16a\	16cc\
8G\	.	.	.	.	.	.	16B\	-gnus	16dd\	-gnus	16ff\	-gnus	.	.	.	.	.	16b\	16dd\	16b\	16dd\
.	.	.	.	.	.	.	16B\	De-	16dd\	De-	16ff\	De-	.	.	.	.	.	16cc\JJ	16ee\JJ	16cc\JJ	16ee\JJ
8G\	.	.	4r	.	4r	.	8B\	-i	8dd\	-i	8ff\	-i	8GG/L	8g/L	8dd\L	8g/L	8dd\L	8dd\L	8ff\L	8dd\L	8ff\L
8G\J	.	.	.	.	.	.	8B\	qui	8dd\	qui	8ff\	qui	8GG/J	8g/J	8dd\J	8g/J	8dd\J	8dd\J	8ff\J	8dd\J	8ff\J
*Xtremolo	*	*	*	*	*	*	*	*	*	*	*	*	*	*	*	*	*	*	*	*	*
!	!	!	!	!	!	!	!LO:LB:g=original	!	!	!	!	!	!	!	!	!	!	!	!	!	!
=43	=43	=43	=43	=43	=43	=43	=43	=43	=43	=43	=43	=43	=43	=43	=43	=43	=43	=43	=43	=43	=43
4G\	.	.	16d/LL	.	16gg\LL	f	8B\	tol-	8dd\	tol-	8ff\	tol-	4GG/	4g/	4dd\	4g/	4dd\	4dd\	4ff\	4dd\	4ff\
.	.	.	16g/	.	16bb\	.	.	.	.	.	.	.	.	.	.	.	.	.	.	.	.
.	.	.	16b/	.	16ddd\	.	16B\	-lis	16dd\	-lis	16ff\	-lis	.	.	.	.	.	.	.	.	.
.	.	.	16a/JJ	.	16ccc\JJ	.	16B\	pec-	16dd\	pec-	16ff\	pec-	.	.	.	.	.	.	.	.	.
4r	.	.	16g/LL	.	16bb\LL	.	16B\LL	-ca-	8ee\	-ca-	8gg\	-ca-	4r	4r	4r	4r	4r	4r	4r	4r	4r
.	.	.	16f/	.	16aa\	.	16G\JJ	.	.	.	.	.	.	.	.	.	.	.	.	.	.
.	.	.	16e/	.	16gg\	.	16A\LL	-ta	8dd\	-ta	8ff\	-ta	.	.	.	.	.	.	.	.	.
.	.	.	16d/JJ	.	16ff\JJ	.	16B\JJ	.	.	.	.	.	.	.	.	.	.	.	.	.	.
!LO:LB:g=original	!	!	!	!	!	!	!	!	!LO:LB:g=original	!	!	!	!	!LO:LB:g=original	!	!	!	!	!	!	!
=44	=44	=44	=44	=44	=44	=44	=44	=44	=44	=44	=44	=44	=44	=44	=44	=44	=44	=44	=44	=44	=44
4C/	.	.	16c/LL	.	16ee\LL	.	8c\	mun-	8cc\	mun-	8ee\	mun-	4C/	4e/	4cc\	4e/	4cc\	4cc\	4ee\	4cc\	4ee\
.	.	.	16c/	.	16cc\	.	.	.	.	.	.	.	.	.	.	.	.	.	.	.	.
.	.	.	16B/	.	16dd\	.	8C/	-di,	8cc\	-di	8ee\	-di,	.	.	.	.	.	.	.	.	.
.	.	.	16c/JJ	.	16ee\JJ	.	.	.	.	.	.	.	.	.	.	.	.	.	.	.	.
4r	.	.	16d/LL	.	16ff\LL	.	4r	.	4r	.	4r	.	4r	4r	4r	4r	4r	4r	4r	4r	4r
.	.	.	16e/	.	16gg\	.	.	.	.	.	.	.	.	.	.	.	.	.	.	.	.
.	.	.	16f/	.	16aa\	.	.	.	.	.	.	.	.	.	.	.	.	.	.	.	.
.	.	.	16d/JJ	.	16bb\JJ	.	.	.	.	.	.	.	.	.	.	.	.	.	.	.	.
=45	=45	=45	=45	=45	=45	=45	=45	=45	=45	=45	=45	=45	=45	=45	=45	=45	=45	=45	=45	=45	=45
!	!	!	!	!	!	!	!LO:TX:a:t=1.	!	!LO:TX:a:t=1.	!	!LO:TX:a:t=1.	!	!	!	!	!	!	!	!	!	!
4C/	.	.	4e 4G/	.	4ccc\	.	2r	.	2r	.	2r	.	8r	8r	8r	8r	8r	8r	8r	8r	8r
.	.	.	.	.	.	.	.	.	.	.	.	.	8C/L	8cc\L	8cc\L	8cc\L	8cc\L	8cc\L	8ee\L	8cc\L	8ee\L
4r	.	.	4r	.	4r	.	.	.	.	.	.	.	8GG/	8g\	8g\	8g\	8g\	8cc\	8ee\	8cc\	8ee\
.	.	.	.	.	.	.	.	.	.	.	.	.	8GG/J	8e\J	8e\J	8e\J	8e\J	8cc\J	8ee\J	8cc\J	8ee\J
!	!	!	!	!	!	!	!	!	!	!	!LO:LB:g=original	!	!	!	!	!LO:LB:g=original	!	!	!	!	!
=46	=46	=46	=46	=46	=46	=46	=46	=46	=46	=46	=46	=46	=46	=46	=46	=46	=46	=46	=46	=46	=46
*	*	*	*	*	*	*	*	*	*	*ij	*	*	*	*	*	*	*	*	*	*	*
8.G\L	6 4	.	8.cc\L	.	8.ee\L	.	8.G\	mi-	8.cc\	qui	8.ee\	Mi-	4GG/	4G/	4g/	2g/	2g/	4cc\	4ee\	4cc\	4ee\
16G\Jk	.	.	16cc\Jk	.	16ee\Jk	.	16G\	-se-	16cc\	tol-	16ee\	-se-	.	.	.	.	.	.	.	.	.
8.G\L	5 3	.	8.b\L	.	8.dd\L	.	8.G\	-re-	8.b\	-lis	8dd\	-re-	4r	4r	4r	.	.	4b\	4dd\	4b\	4dd\
.	.	.	.	.	.	.	.	.	.	.	8dd\	-re	.	.	.	.	.	.	.	.	.
16G\Jk	.	.	16b\Jk	.	16dd\Jk	.	16G\	-re	16b\	pec-	.	.	.	.	.	.	.	.	.	.	.
!	!	!	!	!	!	!	!	!	!	!	!	!	!	!	!	!	!	!LO:LB:g=original	!	!	!
=47	=47	=47	=47	=47	=47	=47	=47	=47	=47	=47	=47	=47	=47	=47	=47	=47	=47	=47	=47	=47	=47
*	*	*	*	*	*	*	*	*	*	*	*	*	*	*	*2\right	*2\right	*2\right	*	*	*	*
4c\	+4r 2	.	16r	.	16r	.	4c\	no-	4a\	-ca-	4ff#X\	no-	2GG/	2g/	2dd\	2dd\	2dd\	4cc\	4ff#X\	4cc/	4ff#X\
.	.	.	16a/LL	.	16ff#X\LL	.	.	.	.	.	.	.	.	.	.	.	.	.	.	.	.
.	.	.	16a/	.	16ff#\	.	.	.	.	.	.	.	.	.	.	.	.	.	.	.	.
.	.	.	16a/JJ	.	16ff#\JJ	.	.	.	.	.	.	.	.	.	.	.	.	.	.	.	.
4B\	6 3	.	16r	.	16r	.	4B\	-bis	4b\	-ta	4gg\	.	.	.	.	.	.	8b/L	4gg\	8b/L	4gg\
*	*	*	*	*	*	*	*	*	*	*Xij	*	*	*	*	*	*	*	*	*	*	*
.	.	.	16b\LL	.	16gg\LL	.	.	.	.	.	.	.	.	.	.	.	.	.	.	.	.
.	.	.	16b\	.	16gg\	.	.	.	.	.	.	.	.	.	.	.	.	8g/J	.	8g/J	.
.	.	.	16b\JJ	.	16gg\JJ	.	.	.	.	.	.	.	.	.	.	.	.	.	.	.	.
=48	=48	=48	=48	=48	=48	=48	=48	=48	=48	=48	=48	=48	=48	=48	=48	=48	=48	=48	=48	=48	=48
4c\	6 3	.	16r	.	16r	.	(4c\	no-	4dd\	mun-	4aa\	.	4C/	4cc\	4ee\	4cc\	4ee\	4cc\	4aa\	4cc/	4aa\
.	.	.	16cc\LL	.	16aa\LL	.	.	.	.	.	.	.	.	.	.	.	.	.	.	.	.
.	.	.	16cc\	.	16aa\	.	.	.	.	.	.	.	.	.	.	.	.	.	.	.	.
.	.	.	16cc\JJ	.	16aa\JJ	.	.	.	.	.	.	.	.	.	.	.	.	.	.	.	.
4d\	#	.	16r	.	16r	.	4d\)	.	4cc\	.	4ff#X\	.	4C/	4e/	4cc\	4cc\	4cc\	4a\	4ff#X\	4a/	4ff#X\
.	.	.	16a/LL	.	16ff#X\LL	.	.	.	.	.	.	.	.	.	.	.	.	.	.	.	.
.	.	.	16a/	.	16ff#\	.	.	.	.	.	.	.	.	.	.	.	.	.	.	.	.
.	.	.	16a/JJ	.	16ff#\JJ	.	.	.	.	.	.	.	.	.	.	.	.	.	.	.	.
!	!	!	!LO:LB:g=original	!	!	!	!	!	!LO:LB:g=original	!	!	!	!	!	!	!	!LO:LB:g=original	!	!	!LO:LB:g=original	!
=49	=49	=49	=49	=49	=49	=49	=49	=49	=49	=49	=49	=49	=49	=49	=49	=49	=49	=49	=49	=49	=49
2G\	.	.	8g/L	.	8gg\L	.	2G\	-bis	2b\	-di.	2gg\	-bis.	4GG/	4g/	4dd\	4dd\	4dd\	8b\L	8gg\L	8b\L	8gg\L
.	.	.	16b/L	.	16dd\L	.	.	.	.	.	.	.	.	.	.	.	.	16b\L	16dd\L	16b\L	16dd\L
.	.	.	16cc/JJ	.	16ee\JJ	.	.	.	.	.	.	.	.	.	.	.	.	16cc\JJ	16ee\JJ	16cc\JJ	16ee\JJ
.	.	.	8b/L	.	8dd\L	.	.	.	.	.	.	.	4r	4r	4r	4r	4r	8b\L	8dd\L	8b\L	8dd\L
.	.	.	8b/J	.	8dd\J	.	.	.	.	.	.	.	.	.	.	.	.	8b\J	8dd\J	8b\J	8dd\J
!	!	!	!	!	!	!	!	!	!	!	!	!	!	!	!	!	!	!	!LO:LB:g=original	!	!LO:LB:g=original
=50	=50	=50	=50	=50	=50	=50	=50	=50	=50	=50	=50	=50	=50	=50	=50	=50	=50	=50	=50	=50	=50
!	!	!	!	!	!	!	!LO:TX:a:t=2.	!	!LO:TX:a:t=2.	!	!	!	!	!	!	!	!	!	!	!	!
2GG/	.	.	8b/L	.	8dd\L	.	1r	.	1r	.	1r	.	4r	4r	4r	4r	4r	8b\L	8dd\L	8b|\L	8dd\L
.	.	.	16g/L	.	16b\L	.	.	.	.	.	.	.	.	.	.	.	.	16g\L	16b\L	(16g\L	16b\L
.	.	.	16a/JJ	.	16cc\JJ	.	.	.	.	.	.	.	.	.	.	.	.	16a\JJ	16cc\JJ	16a\JJ)	16cc\JJ
.	.	.	8g/L	.	8b\L	.	.	.	.	.	.	.	8GG/L	8G/L	8g/L	8G/L	8g/L	8g/L	8b\L	8g/L	8b\L
.	.	.	8g/J	.	8b\J	.	.	.	.	.	.	.	8GG/J	8G/J	8g/J	8G/J	8g/J	8g/J	8b\J	8g/J	8b\J
=51	=51	=51	=51	=51	=51	=51	=51	=51	=51	=51	=51	=51	=51	=51	=51	=51	=51	=51	=51	=51	=51
*	*	*	*	*	*	*	*	*	*	*	*	*	*	*	*	*	*	*	*2\right	*	*2\right
!LO:TX:b:i:t=Dona nobis ut Kyrie.	!	!	!LO:TX:b:i:t=Dona nobis ut Kyrie.	!	!LO:TX:b:i:t=Dona nobis ut Kyrie	!	!LO:TX:b:i:t=Dona nobis ut Kyrie.	!	!LO:TX:b:i:t=Dona nobis ut Kyrie.	!	!LO:TX:b:i:t=Dona nobis ut Kyrie.	!	!LO:TX:b:i:t=Dona nobis ut Kyrie.\nFinis.	!LO:TX:b:i:t=Dona nobis ut Kyrie.\nFinis.	!LO:TX:b:i:t=Dona nobis ut Kyrie.	!LO:TX:b:i:t=Dona nobis ut Kyrie.	!LO:TX:b:i:t=Dona nobis ut Kyrie.	!LO:TX:b:i:t=Dona nobis ut Kyrie.	!LO:TX:b:i:t=Dona nobis ut Kyrie.	!LO:TX:b:i:t=Dona nobis ut Kyrie.	!LO:TX:b:i:t=Dona nobis ut Kyrie.
2GG/	.	.	2g/	.	2b 2g/	.	.	.	.	.	.	.	2GG/	2G/	2g/	2G/	2g/	2g/	2b\	2g/	2b\
==	==	==	==	==	==	==	==	==	==	==	==	==	==	==	==	==	==	==	==	==	==
*-	*-	*-	*-	*-	*-	*-	*-	*-	*-	*-	*-	*-	*-	*-	*-	*-	*-	*-	*-	*-	*-
!!!system-decoration: [(g1)][(g2)]<s9>[(g3)][(g4)]<s15>
!!!RDF**kern: > = above
!!!RDF**kern: < = below
!!!RDF**kern: | = vertical stroke
!!!RDF**dynam: p = "pia"
!!!RDF**dynam: f = "for"
!!!ENC: Solarz Mateusz
!!!END: 2020-10-05
!!!ENC: Andrzej Kubiczek
!!!END: 2022-02-03
